X:181
T:18. NINEPINS (32 bar reels)
T:De'il Among the Tailors, The
R:Reel
O:Scotland
M:4/4
K:A
eg|\
a2eg a2eg|a2ea fedc|dfBf dfBf|dfba gfeg|\
a2eg a2eg|
a2ea fedc|defd ecBA|E2G2 A2::\
e2|\
ceAe ceAe|ceag fedc|
dfBf dfBf|dfba gfed|\
ceAe ceAe|ceag fedc|defd ecBA|E2G2 A2:|
